packages/core/src/svgs/tokens/mono/DSETH.svg

<svg width="24" height="24" viewBox="0 0 24 24" fill="none" xmlns="http://www.w3.org/2000/svg">
<path d="M9.36857 17.0631L3.5791 13.5789L9.36857 22V17.0631Z" fill="white"/>
<path d="M14.6313 17.0631L20.4208 13.5789L14.6313 22V17.0631Z" fill="white"/>
<path d="M12.0004 9.10527V2L6.21094 11.4737L12.0004 9.10527Z" fill="white"/>
<path d="M12.0004 8.84211V15.158L6.21094 11.4737L12.0004 8.84211ZM12.0004 9.10527V2L17.7899 11.4737L12.0004 9.10527Z" fill="white"/>
<path d="M11.9995 8.8418V15.1576L17.789 11.4734L11.9995 8.8418Z" fill="white"/>
</svg>

<svg xmlns="http://www.w3.org/2000/svg" width="24" height="24" fill="none" viewBox="0 0 24 24">
    <path fill="#fff" d="m9.369 17.063-5.79-3.484L9.37 22zm5.262 0 5.79-3.484L14.63 22zM12 9.105V2l-5.79 9.474z"/>
    <path fill="#fff" d="M12 8.842v6.316l-5.79-3.684zm0 .263V2l5.79 9.474z"/>
    <path fill="#fff" d="M12 8.842v6.316l5.789-3.685z"/>
</svg>
